X:1
T:Burlington
T:Bb Major                 William Billings, 1786
T:James Relly, 1776 (Exodus 14)                                         76. 76. 78. 76.
T:Transcribed from The Suffolk Harmony, 1786.
%%score [ 1 2 3 4 ]
L:1/8
Q:1/4=130
M:2/4
K:Bb
V:1 treble nm="Tr." snm="Tr."
V:2 treble nm="C." snm="C."
V:3 treble-8 nm="T." snm="T."
V:4 bass nm="B." snm="B."
V:1
 z4 | z4 | %2
"_1.  is   be – fore:   Come   let     us       for   –  ward     go!                                     nor   its    roar,   Nor     the   E   –   gyp  – tian    foe,""_2. flesh and sense, Press  hard   up  –   on       our      rear;                                  cause  of – fense,   Or    make  the    spi   –   rit    fear;""_3. hands a – loud,   To      drive  us      back      a   –   gain;                                   vast –ly   crowd  T'af – fright  the   sons      of    men;" d2 c2 | %3
 d4 | B4 | d2 cd | ed cB | c4 | z4 | z4 | d2 c2 | d4 | B4 | d2 cd | ed c2 | B4 | z4 | z4 | z4 | %19
 z2 z"_His  power   on         our   be  –  half      he      shows.""_While ven  – geance   on    his     foes      he     throws.""_While  he       his      great   sal  –  va  –  tion     shows;" c | %20
 BA Bc | d2 cd | ed cB | c4 |: %24
"_Move we    for – ward    to        the   land  where  milk  and      ho   –   ney    flows." B2 B2 | %25
 A2 A2 | B2 A2 | B2 c2 | B2 B2 | fe dc | d4 :| %31
V:2
 z4 | z4 | %2
"_1.  is   be  –  fore:                                                                                                  Not   the     o – cean    nor   its      roar,       Nor       the      E     –    gyp  –  tian      foe,       May  ob-struct  what""_2.  flesh and sense,                                                                                               Vain –ly      strive  to  cause  of– fense,       Or       make   the        spi    –   rit        fear;      God  pro-tects   us""_3. hands a – loud,                                                                                                Seas   of       tri  – als   vast – ly   crowd      T'af –  fright   the       sons        of        men;     Je  –  sus   bids   us" F2 F2 | %3
 F4 | z4 | z4 | z4 | z4 | F2 G2 | F2 D2 | F2 F2 | F4 | G4 | F2 G2 | G2 F2 | D4 | F2 F2 | F2 F2 | %18
"_God     com  –  mands,""_in         his        hand,""_qui   –   et         stand," F2 G2 | %19
 F3 z | z4 | z4 | z4 | z4 |: %24
"_Move we    for – ward    to        the   land  where  milk  and      ho   –   ney    flows." F2 F2 | %25
 F2 FE | D2 DC | D2 G2 | F2 G2 | F2 F2 | F4 :| %31
V:3
"_1.   Canaan    promised    is    be – fore:                                                                      Not  the    ocean     nor   its   roar,                                                                 May obstruct what""_2. Pharoah's hosts, our flesh and sense,                                                                      Vain–ly  strive  to  cause  offense,                                                                 God  protects  us""_3.  Roaring  floods clap  hands  a–loud,                                                                       Seas of    tri – als  vast–ly crowd;                                                                 Je – sus  bids  us" B2 B2 | %1
 F2 F2 | B2 A2 | B4 | z4 | z4 | z4 | z4 | B2 B2 | F2 F2 | B2 A2 | B4 | z4 | z4 | z4 | z4 | d2 d2 | %17
 c2 c2 | dc Bc | d3 z | z4 | z4 | z4 | z4 |: d2 d2 | c2 c2 | Bc de | f2 e2 | d2 cB | c2 BA | B4 :| %31
V:4
"_2. Pharoah's  hosts,  our flesh and sense   Press   hard   up   –   on        our    rear;    Vain–ly  strive to  cause of – fense,   Or     make  the      spi   –   rit   fear;     God  protects  us""_3.  Roaring  floods  clap hands  a –loud,   To       drive  us       back      a  –  gain;     Seas  of   tri – als  vast – ly  crowd  T'af – fright  the      sons      of   men;    Je – sus  bids  us""_1.  Canaan     promised    is    be  – fore:   Come  let     us        for  –  ward     go!     Not  the   o – cean  nor  its     roar,   Nor     the    E    –   gyp  – tian   foe,     May obstruct what" B,,2 E,2 | %1
 D,2 B,,2 | D,2 F,2 | B,,4 | E,4 | D,2 E,D, | C,2 C,2 | F,4 | B,,2 E,2 | D,2 B,,2 | D,2 F,2 | %11
 B,,4 | E,4 | D,2 E,D, | C,2 F,2 | B,,4 | B,,2 B,,2 | F,2 F,2 | %18
"_God    com–mands.   His  power   on      our     be  –   half      he      shows.""_in        his     hand,   While  vengeance     on     his      foes      he     throws.""_qui   –  et     stand,    While   he     his    great    sal  –   va  –   tion    shows;" B,A, G,A, | %19
 B,3 A, | G,F, G,A, | B,2 A,B, | C2 C,2 | F,4 |: %24
"_Move we    for – ward    to        the   land  where  milk  and      ho   –   ney    flows." B,2 B,2 | %25
 F,2 F,2 | G,2 F,E, | D,2 C,2 | D,2 E,2 | F,2 F,,2 | B,,4 :| %31

